static/images/newsroom-logo.svg

<?xml version="1.0" encoding="UTF-8"?>
<svg width="367px" height="38px" viewBox="0 0 367 38" version="1.1" xmlns="http://www.w3.org/2000/svg" xmlns:xlink="http://www.w3.org/1999/xlink">
    <!-- Generator: sketchtool 42 (36781) - http://www.bohemiancoding.com/sketch -->
    <title>D8A75689-DFFC-43E7-9695-4C78C2551E92</title>
    <desc>Created with sketchtool.</desc>
    <defs>
        <polygon id="path-1" points="2.97131678e-20 0.337085401 2.97131678e-20 35.9918635 19.9844633 35.9918635 19.9844633 0.337085401 0 0.337085401"></polygon>
        <polygon id="path-3" points="34.804958 0.266474937 0.341802145 0.266474937 0.341802145 37.2199678 34.804958 37.2199678 34.804958 0.266474937"></polygon>
        <polygon id="path-5" points="38.2172727 0.266474937 0.512155106 0.266474937 0.512155106 37.2200756 38.2172727 37.2200756 38.2172727 0.266474937"></polygon>
        <polygon id="path-7" points="37.8577118 0.266474937 0.152594158 0.266474937 0.152594158 37.2200756 37.8577118 37.2200756 37.8577118 0.266474937"></polygon>
        <polygon id="path-9" points="10.8153302 10.2297615 10.8153302 0.527759799 0.524712177 0.527759799 0.524712177 10.2297615 10.8153302 10.2297615"></polygon>
    </defs>
    <g id="Desktop" stroke="none" stroke-width="1" fill="none" fill-rule="evenodd">
        <g id="Desktop---Homepage" transform="translate(-153.000000, -532.000000)">
            <g id="Newsroom-logo" transform="translate(153.000000, 532.000000)">
                <g id="Group-3" transform="translate(0.000000, 0.812587)">
                    <mask id="mask-2" fill="white">
                        <use xlink:href="#path-1"></use>
                    </mask>
                    <g id="Clip-2"></g>
                    <path d="M15.7694881,0.337085401 L-0.000219244481,1.03563812 L-0.000219244481,2.95598382 C4.4498956,3.0331213 5.38661764,4.41620175 5.38661764,6.72061659 L5.38661764,31.3053569 C5.38661764,33.3023007 4.4498956,33.9943803 -0.000219244481,34.0709784 L-0.000219244481,35.9918635 L19.9844633,35.9918635 L19.9844633,34.0709784 C16.9397055,33.9943803 15.76894,33.3023007 15.76894,31.3053569 L15.7694881,0.337085401 Z" id="Fill-1" fill="#000000" mask="url(#mask-2)"></path>
                </g>
                <g id="Group-6" transform="translate(44.397007, 0.273164)">
                    <mask id="mask-4" fill="white">
                        <use xlink:href="#path-3"></use>
                    </mask>
                    <g id="Clip-5"></g>
                    <path d="M11.2705914,18.0904117 L34.7681186,18.0904117 C35.3145854,8.0258583 29.772085,0.266259168 18.7643677,0.266259168 C8.14800187,0.266259168 0.341802145,7.56465168 0.341802145,19.2426191 C0.341802145,30.5365174 7.36749152,37.2199678 18.7643677,37.2199678 C26.4932838,37.2199678 31.3331057,33.5324725 34.7681186,28.1549651 L33.2065498,27.0022182 C30.2401719,30.9971846 26.9619189,33.3021389 22.5901839,33.3021389 C15.0958595,33.3021389 11.2705914,27.7703565 11.2705914,19.0122855 L11.2705914,18.935148 L11.2705914,18.0904117 Z M18.218449,2.64781149 C23.0582709,2.64781149 25.0100949,8.10245636 24.1512046,15.7859969 L11.3489713,15.8620555 C11.7392265,7.33431808 14.0029257,2.64781149 18.218449,2.64781149 L18.218449,2.64781149 Z" id="Fill-4" fill="#000000" mask="url(#mask-4)"></path>
                </g>
                <path d="M107.650027,8.06852665 C106.323049,4.45816885 105.152284,3.53575561 102.107526,3.15168647 L102.107526,1.30793883 L121.545742,1.30793883 L121.545742,3.15168647 C118.423152,3.45861813 117.173459,3.99696223 117.173459,5.53323879 C117.173459,5.99390599 117.330218,6.53225009 117.48643,7.22325089 L124.121864,27.1986221 L124.51212,27.1986221 L130.132452,10.9107462 C130.757299,9.06753796 130.991342,7.68445751 130.991342,6.91631923 C130.991342,4.68796303 129.508153,3.68949115 125.995308,3.15168647 L125.995308,1.30793883 L140.983409,1.30793883 L140.983409,3.15168647 C137.470565,3.61289309 135.284697,5.45610131 134.0361,9.06753796 L124.043484,37.2626361 L117.798854,37.2626361 L110.460193,16.2893324 L101.951314,37.2626361 L95.7845152,37.2626361 L84.5433026,8.06852665 C83.2163254,4.68796303 82.0450117,3.68949115 78.4543353,3.15168647 L78.4543353,1.30793883 L98.282258,1.30793883 L98.282258,3.15168647 C95.5504717,3.38202007 94.3791581,3.99696223 94.3791581,5.37950325 C94.3791581,5.84017045 94.6132016,6.53225009 94.8472451,7.22325089 L102.342118,27.4289557 L102.732373,27.4289557 L109.055384,12.1400911 L107.650027,8.06852665 Z" id="Fill-7" fill="#000000"></path>
                <path d="M141.142471,24.6632264 L143.328339,24.6632264 C147.543862,31.5775498 151.837765,34.957574 156.599207,34.957574 C160.580687,34.957574 162.610342,32.8834927 162.610342,30.0412732 C162.610342,26.6607096 160.190432,25.124433 152.696107,22.9726749 C144.499652,20.66826 141.220303,18.1329722 141.220303,12.5245918 C141.220303,5.37939537 146.997395,0.693428202 155.584653,0.693428202 C158.941286,0.693428202 162.297919,1.76903756 164.405955,3.07498052 L166.357231,0.693428202 L168.386886,0.693428202 L168.386886,12.0633851 L166.201019,12.0633851 C162.297919,6.22467113 159.25371,3.07498052 154.959806,3.07498052 C151.681553,3.07498052 149.339474,5.07246371 149.339474,8.22215431 C149.339474,11.3723843 152.462064,12.6783273 157.848352,13.9848097 C166.123187,16.0588909 170.494922,18.9011104 170.494922,25.2010311 C170.494922,32.1153544 164.71783,37.4162638 155.896528,37.4162638 C153.00853,37.4162638 147.700073,36.1103208 145.592038,34.8043778 L143.250507,37.4162638 L141.142471,37.4162638 L141.142471,24.6632264 Z" id="Fill-9" fill="#000000"></path>
                <g id="Group-13" transform="translate(206.637923, 0.273164)">
                    <mask id="mask-6" fill="white">
                        <use xlink:href="#path-5"></use>
                    </mask>
                    <g id="Clip-12"></g>
                    <path d="M19.4039039,0.266367053 C8.00647956,0.266367053 0.512155106,7.56475956 0.512155106,18.8586579 C0.512155106,30.2286148 7.53784448,37.2200756 19.4039039,37.2200756 C30.6445684,37.2200756 38.2172727,29.9216831 38.2172727,18.5511868 C38.2172727,7.25728848 31.0353717,0.266367053 19.4039039,0.266367053 M19.7157792,34.8385233 C14.0954469,34.8385233 11.597156,29.537614 11.597156,18.7049223 C11.597156,7.87223064 13.4706001,2.64791938 19.0131006,2.64791938 C24.5561492,2.64791938 27.05444,7.87223064 27.05444,18.7049223 C27.05444,29.537614 25.102616,34.8385233 19.7157792,34.8385233" id="Fill-11" fill="#000000" mask="url(#mask-6)"></path>
                </g>
                <g id="Group-16" transform="translate(248.294374, 0.273164)">
                    <mask id="mask-8" fill="white">
                        <use xlink:href="#path-7"></use>
                    </mask>
                    <g id="Clip-15"></g>
                    <path d="M19.0443429,0.266367053 C7.64691861,0.266367053 0.152594158,7.56475956 0.152594158,18.8586579 C0.152594158,30.2286148 7.17828354,37.2200756 19.0443429,37.2200756 C30.2850074,37.2200756 37.8577118,29.9216831 37.8577118,18.5511868 C37.8577118,7.25728848 30.6758107,0.266367053 19.0443429,0.266367053 M19.3562182,34.8385233 C13.7358859,34.8385233 11.2375951,29.537614 11.2375951,18.7049223 C11.2375951,7.87223064 13.1110392,2.64791938 18.6535396,2.64791938 C24.1965882,2.64791938 26.6948791,7.87223064 26.6948791,18.7049223 C26.6948791,29.537614 24.7430551,34.8385233 19.3562182,34.8385233" id="Fill-14" fill="#000000" mask="url(#mask-8)"></path>
                </g>
                <path d="M311.495104,34.8811377 C314.618241,34.8040003 315.398752,34.1129995 315.398752,32.1155163 L315.398752,13.4466274 C315.398752,8.8372583 313.680971,6.45516655 309.700039,6.45516655 C306.967705,6.45516655 305.328304,7.91484506 303.220269,10.0660638 L303.220269,32.1155163 C303.220269,34.1129995 303.922947,34.8040003 306.967705,34.8811377 L306.967705,36.8014834 L287.451658,36.8014834 L287.451658,34.8811377 C291.901224,34.8040003 292.837946,34.1129995 292.837946,32.1155163 L292.837946,7.53077592 C292.837946,5.22582165 291.901224,3.84328063 287.451658,3.76668257 L287.451658,1.84525803 L303.064605,1.15425723 L303.064605,7.91484506 C306.733662,3.84328063 311.027017,0.923923628 316.100882,0.923923628 C321.331507,0.923923628 324.454097,3.53527013 325.390819,8.2989142 C328.903663,4.15075171 333.743485,0.923923628 338.661687,0.923923628 C345.218741,0.923923628 348.341879,4.84175251 348.341879,12.063547 L348.341879,32.1155163 C348.341879,34.1129995 349.200221,34.8040003 353.649788,34.8811377 L353.649788,36.8014834 L334.13374,36.8014834 L334.13374,34.8811377 C337.178498,34.8040003 337.959009,34.1129995 337.959009,32.1155163 L337.959009,13.4466274 C337.959009,8.8372583 336.47582,6.45516655 332.57272,6.45516655 C330.543064,6.45516655 327.888561,7.99198254 325.624862,10.4501329 C325.702694,11.1416731 325.781074,11.5257423 325.781074,11.9869489 L325.781074,32.1155163 C325.781074,34.1129995 326.561584,34.8040003 329.762554,34.8811377 L329.762554,36.8014834 L311.495104,36.8014834 L311.495104,34.8811377 Z" id="Fill-17" fill="#000000"></path>
                <path d="M38.798161,32.1177818 L38.798161,12.0658125 C38.798161,4.84455751 35.7534033,0.926189205 29.2741808,0.926189205 C25.396294,0.926189205 21.7025726,2.55416767 18.5377786,5.13854302 L18.5377786,7.78495201 C19.8768142,6.9526224 21.3210872,6.45797155 22.9511699,6.45797155 C26.8542698,6.45797155 28.4158386,8.7623864 28.4158386,13.448893 L28.4158386,32.1177818 C28.4158386,34.115265 27.244525,34.8068053 24.1224836,34.8834033 L24.1224836,36.8042884 L44.1844498,36.8042884 L44.1844498,34.8834033 C39.6565031,34.8068053 38.798161,34.115265 38.798161,32.1177818" id="Fill-19" fill="#000000"></path>
                <path d="M199.779517,0.846732204 C195.564542,0.846732204 191.738726,3.84322669 189.084771,7.9919286 L189.084771,1.15420329 L173.471824,1.84574351 L173.471824,3.76662863 C177.921939,3.84322669 178.858112,5.22576771 178.858112,7.53072197 L178.858112,32.1154623 C178.858112,34.1129455 177.921939,34.8039463 173.471824,34.8810838 L173.471824,36.8019689 L196.266672,36.8019689 L196.266672,34.8810838 C190.568508,34.7278877 189.240983,34.1129455 189.240983,32.1154623 L189.240983,10.2963434 C190.698411,8.27566507 192.662293,6.59050777 194.702911,6.0316656 C194.65961,6.32726937 194.630012,6.62718853 194.630012,6.93519904 C194.630012,10.2785425 197.25108,12.9891428 200.48384,12.9891428 C203.717148,12.9891428 206.337119,10.2785425 206.337119,6.93519904 C206.337119,4.04119491 204.396806,0.846732204 199.779517,0.846732204" id="Fill-21" fill="#000000"></path>
                <g id="Group-25" transform="translate(355.724170, 26.704888)">
                    <mask id="mask-10" fill="white">
                        <use xlink:href="#path-9"></use>
                    </mask>
                    <g id="Clip-24"></g>
                    <path d="M10.8135763,5.32599249 C10.8481073,7.01222863 10.0571828,8.27501776 8.77295826,9.18502428 C6.91705374,10.5001374 4.88520551,10.5573163 2.91913064,9.4488021 C0.649402151,8.16929086 -0.351448902,5.06275409 1.4589624,2.61485275 C3.21949557,0.234379272 6.71754126,-0.0757889244 8.84530894,1.51065397 C10.1108977,2.45410471 10.8579733,3.73631306 10.8135763,5.32599249" id="Fill-23" fill="#000000" mask="url(#mask-10)"></path>
                </g>
            </g>
        </g>
    </g>
</svg>

<?xml version="1.0" encoding="UTF-8" standalone="no"?>
<svg
   xmlns:dc="http://purl.org/dc/elements/1.1/"
   xmlns:cc="http://creativecommons.org/ns#"
   xmlns:rdf="http://www.w3.org/1999/02/22-rdf-syntax-ns#"
   xmlns:svg="http://www.w3.org/2000/svg"
   xmlns="http://www.w3.org/2000/svg"
   xmlns:xlink="http://www.w3.org/1999/xlink"
   xmlns:sodipodi="http://sodipodi.sourceforge.net/DTD/sodipodi-0.dtd"
   xmlns:inkscape="http://www.inkscape.org/namespaces/inkscape"
   width="366.53983"
   height="70.243843"
   viewBox="0 0 366.53983 70.243843"
   version="1.1"
   id="svg6435"
   inkscape:version="0.91 r13725"
   sodipodi:docname="newsroom-logo.svg">
  <metadata
     id="metadata6488">
    <rdf:RDF>
      <cc:Work
         rdf:about="">
        <dc:format>image/svg+xml</dc:format>
        <dc:type
           rdf:resource="http://purl.org/dc/dcmitype/StillImage" />
        <dc:title>D8A75689-DFFC-43E7-9695-4C78C2551E92</dc:title>
      </cc:Work>
    </rdf:RDF>
  </metadata>
  <sodipodi:namedview
     pagecolor="#ffffff"
     bordercolor="#666666"
     borderopacity="1"
     objecttolerance="10"
     gridtolerance="10"
     guidetolerance="10"
     inkscape:pageopacity="0"
     inkscape:pageshadow="2"
     inkscape:window-width="640"
     inkscape:window-height="480"
     id="namedview6486"
     showgrid="false"
     fit-margin-top="0"
     fit-margin-left="0"
     fit-margin-right="0"
     fit-margin-bottom="0"
     inkscape:zoom="3.2425068"
     inkscape:cx="159.52186"
     inkscape:cy="33.454277"
     inkscape:current-layer="svg6435" />
  <!-- Generator: sketchtool 42 (36781) - http://www.bohemiancoding.com/sketch -->
  <title
     id="title6437">D8A75689-DFFC-43E7-9695-4C78C2551E92</title>
  <desc
     id="desc6439">Created with sketchtool.</desc>
  <defs
     id="defs6441">
    <polygon
       id="path-1"
       points="19.984463,35.991864 19.984463,0.3370854 0,0.3370854 2.9713168e-20,0.3370854 2.9713168e-20,35.991864 " />
    <polygon
       id="path-3"
       points="0.34180215,37.219968 34.804958,37.219968 34.804958,0.26647494 34.804958,0.26647494 0.34180215,0.26647494 " />
    <polygon
       id="path-5"
       points="0.51215511,37.220076 38.217273,37.220076 38.217273,0.26647494 38.217273,0.26647494 0.51215511,0.26647494 " />
    <polygon
       id="path-7"
       points="0.15259416,37.220076 37.857712,37.220076 37.857712,0.26647494 37.857712,0.26647494 0.15259416,0.26647494 " />
    <polygon
       id="path-9"
       points="0.52471218,0.5277598 0.52471218,10.229762 10.81533,10.229762 10.81533,10.229762 10.81533,0.5277598 " />
    <mask
       id="mask-2-7"
       fill="white">
      <use
         height="100%"
         width="100%"
         y="0"
         x="0"
         xlink:href="#path-1"
         id="use5881" />
    </mask>
    <mask
       id="mask-4-1"
       fill="white">
      <use
         height="100%"
         width="100%"
         y="0"
         x="0"
         xlink:href="#path-3"
         id="use5887" />
    </mask>
  </defs>
  <g
     id="Desktop"
     style="fill:none;fill-rule:evenodd;stroke:none;stroke-width:1"
     transform="translate(2.1924448e-4,17.789569)">
    <g
       id="Desktop---Homepage"
       transform="translate(-153,-532)">
      <g
         id="Newsroom-logo"
         transform="translate(153,532)">
        <g
           id="Group-3"
           transform="translate(0,0.812587)">
          <mask
             id="mask-2"
             fill="white">
            <use
               xlink:href="#path-1"
               id="use6453"
               x="0"
               y="0"
               width="100%"
               height="100%" />
          </mask>
          <g
             id="Clip-2" />
          <path
             d="m 15.769488,0.3370854 -15.76970724448,0.6985527 0,1.9203457 C 4.4498956,3.0331213 5.3866176,4.4162017 5.3866176,6.7206166 l 0,24.5847404 c 0,1.996944 -0.936722,2.689023 -5.38683684448,2.765621 l 0,1.920885 19.98468224448,0 0,-1.920885 C 16.939705,33.99438 15.76894,33.302301 15.76894,31.305357 l 5.48e-4,-30.9682716 z"
             id="Fill-1"
             mask="url(#mask-2)"
             inkscape:connector-curvature="0"
             style="fill:#000000" />
        </g>
        <g
           id="Group-6"
           transform="translate(44.397007,0.273164)">
          <mask
             id="mask-4"
             fill="white">
            <use
               xlink:href="#path-3"
               id="use6459"
               x="0"
               y="0"
               width="100%"
               height="100%" />
          </mask>
          <g
             id="Clip-5" />
          <path
             d="m 11.270591,18.090412 23.497528,0 C 35.314585,8.0258583 29.772085,0.26625917 18.764368,0.26625917 c -10.6163661,0 -18.42256585,7.29839253 -18.42256585,18.97635983 0,11.293898 7.02568935,17.977349 18.42256585,17.977349 7.728916,0 12.568738,-3.687496 16.003751,-9.065003 L 33.20655,27.002218 c -2.966378,3.994967 -6.244631,6.299921 -10.616366,6.299921 -7.494324,0 -11.319593,-5.531783 -11.319593,-14.289854 l 0,-0.07714 0,-0.844736 z M 18.218449,2.6478115 c 4.839822,0 6.791646,5.4546449 5.932756,13.1381855 l -12.802234,0.07606 C 11.739226,7.3343181 14.002926,2.6478115 18.218449,2.6478115 l 0,0 z"
             id="Fill-4"
             mask="url(#mask-4)"
             inkscape:connector-curvature="0"
             style="fill:#000000" />
        </g>
        <path
           d="m 107.65003,8.0685267 c -1.32698,-3.6103579 -2.49775,-4.5327711 -5.5425,-4.9168402 l 0,-1.8437477 19.43821,0 0,1.8437477 c -3.12259,0.3069316 -4.37228,0.8452757 -4.37228,2.3815523 0,0.4606672 0.15676,0.9990113 0.31297,1.6900121 l 6.63543,19.9753711 0.39026,0 5.62033,-16.287876 c 0.62485,-1.843208 0.85889,-3.2262885 0.85889,-3.9944268 0,-2.2283562 -1.48319,-3.2268281 -4.99603,-3.7646327 l 0,-1.8437477 14.9881,0 0,1.8437477 c -3.51285,0.4612066 -5.69871,2.3044148 -6.94731,5.9158515 l -9.99262,28.195098 -6.24463,0 -7.33866,-20.973304 -8.50888,20.973304 -6.166795,0 L 84.543303,8.0685267 C 83.216325,4.687963 82.045012,3.6894911 78.454335,3.1516865 l 0,-1.8437477 19.827923,0 0,1.8437477 c -2.731786,0.2303336 -3.9031,0.8452757 -3.9031,2.2278167 0,0.4606672 0.234044,1.1527469 0.468087,1.8437477 l 7.494875,20.2057051 0.39025,0 6.32301,-15.288865 -1.40535,-4.0715643 z"
           id="Fill-7"
           inkscape:connector-curvature="0"
           style="fill:#000000" />
        <path
           d="m 141.14247,24.663226 2.18587,0 c 4.21552,6.914324 8.50942,10.294348 13.27087,10.294348 3.98148,0 6.01113,-2.074081 6.01113,-4.916301 0,-3.380563 -2.41991,-4.91684 -9.91423,-7.068598 -8.19646,-2.304415 -11.47581,-4.839703 -11.47581,-10.448083 0,-7.1451966 5.77709,-11.8311638 14.36435,-11.8311638 3.35664,0 6.71327,1.0756094 8.8213,2.3815523 l 1.95128,-2.3815523 2.02966,0 0,11.3699568 -2.18587,0 c -3.9031,-5.8387139 -6.94731,-8.9884045 -11.24121,-8.9884045 -3.27826,0 -5.62034,1.9974832 -5.62034,5.1471738 0,3.1502297 3.12259,4.4561727 8.50888,5.7626557 8.27484,2.074081 12.64657,4.9163 12.64657,11.216221 0,6.914323 -5.77709,12.215233 -14.59839,12.215233 -2.888,0 -8.19646,-1.305943 -10.30449,-2.611886 l -2.34153,2.611886 -2.10804,0 0,-12.753038 z"
           id="Fill-9"
           inkscape:connector-curvature="0"
           style="fill:#000000" />
        <g
           id="Group-13"
           transform="translate(206.63792,0.273164)">
          <mask
             id="mask-6"
             fill="white">
            <use
               xlink:href="#path-5"
               id="use6467"
               x="0"
               y="0"
               width="100%"
               height="100%" />
          </mask>
          <g
             id="Clip-12" />
          <path
             d="m 19.403904,0.26636705 c -11.3974244,0 -18.89174889,7.29839255 -18.89174889,18.59229095 0,11.369957 7.02568939,18.361418 18.89174889,18.361418 11.240664,0 18.813369,-7.298393 18.813369,-18.668889 0,-11.2938985 -7.181901,-18.28481995 -18.813369,-18.28481995 M 19.715779,34.838523 c -5.620332,0 -8.118623,-5.300909 -8.118623,-16.133601 0,-10.8326914 1.873444,-16.0570026 7.415945,-16.0570026 5.543048,0 8.041339,5.2243112 8.041339,16.0570026 0,10.832692 -1.951824,16.133601 -7.338661,16.133601"
             id="Fill-11"
             mask="url(#mask-6)"
             inkscape:connector-curvature="0"
             style="fill:#000000" />
        </g>
        <g
           id="Group-16"
           transform="translate(248.29437,0.273164)">
          <mask
             id="mask-8"
             fill="white">
            <use
               xlink:href="#path-7"
               id="use6473"
               x="0"
               y="0"
               width="100%"
               height="100%" />
          </mask>
          <g
             id="Clip-15" />
          <path
             d="m 19.044343,0.26636705 c -11.3974244,0 -18.89174884,7.29839255 -18.89174884,18.59229095 0,11.369957 7.02568934,18.361418 18.89174884,18.361418 11.240664,0 18.813369,-7.298393 18.813369,-18.668889 0,-11.2938985 -7.181901,-18.28481995 -18.813369,-18.28481995 M 19.356218,34.838523 c -5.620332,0 -8.118623,-5.300909 -8.118623,-16.133601 0,-10.8326914 1.873444,-16.0570026 7.415945,-16.0570026 5.543048,0 8.041339,5.2243112 8.041339,16.0570026 0,10.832692 -1.951824,16.133601 -7.338661,16.133601"
             id="Fill-14"
             mask="url(#mask-8)"
             inkscape:connector-curvature="0"
             style="fill:#000000" />
        </g>
        <path
           d="m 311.4951,34.881138 c 3.12314,-0.07714 3.90365,-0.768139 3.90365,-2.765622 l 0,-18.668889 c 0,-4.6093687 -1.71778,-6.9914604 -5.69871,-6.9914604 -2.73233,0 -4.37174,1.4596785 -6.47977,3.6108974 l 0,22.049452 c 0,1.997483 0.70268,2.688484 3.74744,2.765622 l 0,1.920345 -19.51605,0 0,-1.920345 c 4.44956,-0.07714 5.38629,-0.768139 5.38629,-2.765622 l 0,-24.5847401 c 0,-2.3049542 -0.93673,-3.6874953 -5.38629,-3.7640933 l 0,-1.9214246 15.61294,-0.6910008 0,6.7605879 c 3.66906,-4.0715645 7.96242,-6.99092147 13.03628,-6.99092147 5.23063,0 8.35322,2.61134647 9.28994,7.37499057 3.51284,-4.1481625 8.35267,-7.37499057 13.27087,-7.37499057 6.55705,0 9.68019,3.91782887 9.68019,11.13962337 l 0,20.051969 c 0,1.997483 0.85834,2.688484 5.30791,2.765622 l 0,1.920345 -19.51605,0 0,-1.920345 c 3.04476,-0.07714 3.82527,-0.768139 3.82527,-2.765622 l 0,-18.668889 c 0,-4.6093687 -1.48319,-6.9914604 -5.38629,-6.9914604 -2.02966,0 -4.68416,1.5368159 -6.94786,3.9949664 0.0778,0.69154 0.15621,1.075609 0.15621,1.536816 l 0,20.128567 c 0,1.997483 0.78051,2.688484 3.98148,2.765622 l 0,1.920345 -18.26745,0 0,-1.920345 z"
           id="Fill-17"
           inkscape:connector-curvature="0"
           style="fill:#000000" />
        <path
           d="m 38.798161,32.117782 0,-20.051969 c 0,-7.2212555 -3.044758,-11.13962379 -9.52398,-11.13962379 -3.877887,0 -7.571608,1.62797849 -10.736402,4.21235379 l 0,2.646409 c 1.339035,-0.8323296 2.783308,-1.3269805 4.413391,-1.3269805 3.9031,0 5.464669,2.3044149 5.464669,6.9909215 l 0,18.668889 c 0,1.997483 -1.171314,2.689023 -4.293355,2.765621 l 0,1.920885 20.061966,0 0,-1.920885 c -4.527947,-0.0766 -5.386289,-0.768138 -5.386289,-2.765621"
           id="Fill-19"
           inkscape:connector-curvature="0"
           style="fill:#000000" />
        <path
           d="m 199.77952,0.8467322 c -4.21498,0 -8.04079,2.9964945 -10.69475,7.1451964 l 0,-6.8377253 -15.61295,0.6915402 0,1.9208851 c 4.45012,0.076598 5.38629,1.4591391 5.38629,3.7640934 l 0,24.58474 c 0,1.997484 -0.93617,2.688484 -5.38629,2.765622 l 0,1.920885 22.79485,0 0,-1.920885 c -5.69816,-0.153196 -7.02569,-0.768138 -7.02569,-2.765622 l 0,-21.819119 c 1.45743,-2.0206779 3.42131,-3.7058352 5.46193,-4.2646774 -0.0433,0.2956038 -0.0729,0.5955229 -0.0729,0.9035334 0,3.343344 2.62107,6.053944 5.85383,6.053944 3.23331,0 5.85328,-2.7106 5.85328,-6.053944 0,-2.8940041 -1.94031,-6.0884668 -6.5576,-6.0884668"
           id="Fill-21"
           inkscape:connector-curvature="0"
           style="fill:#000000" />
        <g
           id="Group-25"
           transform="translate(355.72417,26.704888)">
          <mask
             id="mask-10"
             fill="white">
            <use
               xlink:href="#path-9"
               id="use6482"
               x="0"
               y="0"
               width="100%"
               height="100%" />
          </mask>
          <g
             id="Clip-24" />
          <path
             d="M 10.813576,5.3259925 C 10.848107,7.0122286 10.057183,8.2750178 8.7729583,9.1850243 6.9170537,10.500137 4.8852055,10.557316 2.9191306,9.4488021 0.64940215,8.1692909 -0.3514489,5.0627541 1.4589624,2.6148527 3.2194956,0.23437927 6.7175413,-0.07578892 8.8453089,1.510654 10.110898,2.4541047 10.857973,3.7363131 10.813576,5.3259925"
             id="Fill-23"
             mask="url(#mask-10)"
             inkscape:connector-curvature="0"
             style="fill:#000000" />
        </g>
      </g>
    </g>
  </g>
</svg>
